public/ArrowRight.svg

<svg width="32" height="32" viewBox="0 0 32 32" fill="none" xmlns="http://www.w3.org/2000/svg">
<path fill-rule="evenodd" clip-rule="evenodd" d="M4.25 16C4.25 15.5858 4.58579 15.25 5 15.25H27C27.4142 15.25 27.75 15.5858 27.75 16C27.75 16.4142 27.4142 16.75 27 16.75H5C4.58579 16.75 4.25 16.4142 4.25 16Z" fill="black"/>
<path fill-rule="evenodd" clip-rule="evenodd" d="M17.4697 6.46967C17.7626 6.17678 18.2374 6.17678 18.5303 6.46967L27.5303 15.4697C27.8232 15.7626 27.8232 16.2374 27.5303 16.5303L18.5303 25.5303C18.2374 25.8232 17.7626 25.8232 17.4697 25.5303C17.1768 25.2374 17.1768 24.7626 17.4697 24.4697L25.9393 16L17.4697 7.53033C17.1768 7.23744 17.1768 6.76256 17.4697 6.46967Z" fill="black"/>
</svg>

<svg width="32" height="32" fill="none" xmlns="http://www.w3.org/2000/svg"><path fill-rule="evenodd" clip-rule="evenodd" d="M4.25 16a.75.75 0 0 1 .75-.75h22a.75.75 0 0 1 0 1.5H5a.75.75 0 0 1-.75-.75Z" fill="#000"/><path fill-rule="evenodd" clip-rule="evenodd" d="M17.47 6.47a.75.75 0 0 1 1.06 0l9 9a.75.75 0 0 1 0 1.06l-9 9a.75.75 0 1 1-1.06-1.06L25.94 16l-8.47-8.47a.75.75 0 0 1 0-1.06Z" fill="#000"/></svg>
